src/main/resources/icons/AllIcons/vcs/ignore_file_dark.svg

<!-- Copyright 2000-2021 JetBrains s.r.o. Use of this source code is governed by the Apache 2.0 license that can be found in the LICENSE file. -->
<svg xmlns="http://www.w3.org/2000/svg" width="16" height="16" viewBox="0 0 16 16">
  <g fill="none" fill-rule="evenodd">
    <path fill="#9AA7B0" fill-opacity=".8" d="M13,8.25605857 C12.5308316,8.09023133 12.0259531,8 11.5,8 C9.01471866,8 7,10.0147187 7,12.5 C7,13.4250733 7.27913584,14.284951 7.75777454,15 L3,15 L3,6 L8,6 L8,1 L13,1 L13,8.25605857 Z M7,1 L7,5 L3,5 L7,1 Z"/>
    <path fill="#9AA7B0" d="M10.1542488,14.6072508 C10.5427424,14.8558702 11.0045395,15 11.5,15 C12.8807119,15 14,13.8807119 14,12.5 C14,12.0045395 13.8558702,11.5427424 13.6072508,11.1542488 L10.1542488,14.6072508 Z M9.3927492,13.8457512 L12.8457512,10.3927492 C12.4572576,10.1441298 11.9954605,10 11.5,10 C10.1192881,10 9,11.1192881 9,12.5 C9,12.9954605 9.1441298,13.4572576 9.3927492,13.8457512 Z M11.5,16 C9.5670034,16 8,14.4329966 8,12.5 C8,10.5670034 9.5670034,9 11.5,9 C13.4329966,9 15,10.5670034 15,12.5 C15,14.4329966 13.4329966,16 11.5,16 Z"/>
  </g>
</svg>

<svg xmlns="http://www.w3.org/2000/svg" width="16" height="16" viewBox="0 0 16 16"><rect id="frame" width="16" height="16" fill="none"/><g fill="#9AA7B0" fill-rule="evenodd"><path fill-opacity=".8" d="M13 8.256A4.5 4.5 0 0 0 7.758 15H3V6h5V1h5v7.256zM7 1v4H3l4-4z"/><path d="M10.154 14.607a2.5 2.5 0 0 0 3.453-3.453l-3.453 3.453zm-.761-.761l3.453-3.453a2.5 2.5 0 0 0-3.453 3.453zM11.5 16a3.5 3.5 0 1 1 0-7 3.5 3.5 0 0 1 0 7z"/></g></svg>
